!!!!SEGMENT: pl-wnifc--13846--027_anonim--27-a-czyjez-to-zdrowie-czyje.krn
!!!kernsource:
!!!cenid: 18xx:3249
!!!COM: Anonim
!!!COM-rismid: pe30004985
!!!CDT:
!!!CNT:
!!!GTL: Pieśni polskie i ruskie ludu galicyjskiego
!!!OTL: 27. A czyjeż to zdrowie czyje
!!!PDT: 1833
!!!AGN:
!!!SMS-siglum: PL-Wnifc
!!!SMS-shelfmark: 13846
!!!SMS-shelfwork: 027 G
!!!SMS-variant:
!!!SMS-altvar:
!!!NIFC-rismid: 1001036785
!!!URL-scan: http://repozytorium.nifc.pl/skany/pl-wnifc-nut--13846
!!!ONB-nifc:
!!!OMD: Allegretto.
!!!key: F
**kern	**kern	**kern	**text
*part2	*part2	*part1	*part1
*staff3	*staff2	*staff1	*staff1
*I"Fortepian	*I"Fortepian	*I"Głos	*
*Ipiano	*Ipiano	*Ivox	*
*ICklav	*ICklav	*ICvox	*
*IGacmp	*IGacmp	*IGsolo	*
*clefF4	*clefG2	*clefG2	*
*k[b-]	*k[b-]	*k[b-]	*
*F:	*F:	*F:	*
*M3/8	*M3/8	*M3/8	*
=1	=1	=1	=1
!	!	!LO:TX:a:t=D.a.15.	!
*^	*	*	*
8FF\L	4.FF/	16f\LL 16a\	16a/	A
.	.	16g\JJ 16b-\	16b-/	czy-
8F\	.	8a\L 8cc\	8cc/	-jeż
8F\J	.	8a\J 8cc\	8cc/	to
=2	=2	=2	=2	=2
8FF/L	4.FF\	(8a\L 8cc\	(8cc/L	zdro-
8F/	.	8b-\J) 8dd\	8dd/J)	.
8F/J	.	8a\ 8cc\	8cc/	-wie
=3	=3	=3	=3	=3
*	*	*^	*	*
8FF/L	4.FF\	4a/ 4cc/	4a\	(4cc\	czy-
8AA/	.	.	.	.	.
*	*	*v	*v	*	*
8C/J	.	8f/ 8a/	8a/)	.
!!LO:LB:g=original
=4	=4	=4	=4	=4
*	*	*^	*	*
4FF/ 4F/	8FF\L	4a/	4f\	4a/	-je?
.	8AA\	.	.	.	.
*	*	*v	*v	*	*
8r	8FF\J	8r	8r	.
=5	=5	=5	=5	=5
8CC/L	4.CC\	16e\LL 16g\	16g/'	day-
.	.	16f\JJ 16a\	16a/'	-cież
8C/	.	8g\L 8b-\	8b-/	mi
8C/J	.	8g\J 8b-\	8b-/	go
=6	=6	=6	=6	=6
4.CC\	8CC/L	8g\L 8b-\	(8b-/L	ja
.	8C/	8a\J 8cc\	8cc/J)	.
.	8C/J	8g\ 8b-\	8b-/	wy-
!!LO:LB:g=original
=7	=7	=7	=7	=7
4.CC\	8CC/L	4g/ 4b-/	(4b-/	-pi-
.	8C/	.	.	.
.	8C/J	8e/ 8g/	8g/)	.
=8	=8	=8	=8	=8
*	*	*^	*	*
4.CC\	8CC/L	4g/	4e\	4g/	-ję
.	8C/	.	.	.	.
*	*	*v	*v	*	*
.	8C/J	8r	8r	.
=9	=9	=9	=9	=9
4.FF\	8F/L	16f\LL 16a\	16a/	zrób-
.	.	16g\JJ 16b-\	16b-/	-cież
.	8F/	8a\L 8cc\	8cc/	mi
.	8F/J	8a\J 8cc\	8cc/	ła-
!!LO:LB:g=original
=10	=10	=10	=10	=10
4.FF\	8FF/L	8a\L 8cc\	(8cc\L	-skę
.	8F/	8b-\J 8dd\	8dd\J)	.
.	8F/J	8a\ 8cc\	8cc/	sza-
=11	=11	=11	=11	=11
4.FF\	8FF/L	4a\ 4cc\	(4cc\	-fun-
.	8AA/	.	.	.
.	8C/J	8f/ 8a/	8a/)	.
*v	*v	*	*	*
=12	=12	=12	=12
8F\L	4f/ 4a/	4a/	ku
8A\	.	.	.
8F\J	8r	8r	.
==13	==13	==13	==13
*^	*	*	*
8BB-/L	8BBB-\	4f\ 4b-\ 4dd\	4dd\	po-
*v	*v	*	*	*
[8BB-/J 8D/ 8F/	.	.	.
!!LO:PB:g=original
=-	=-	=--	=-
!LO:TX:t=P:problem:brak zakończenia łuku	!	!	!
8BB-/] 8D/ 8F/ 8B-/	8f/ 8b-/ 8dd/	8dd\	-daj-
=14	=14	=14	=14
8FFF/ 8FF/	4f\ 4a\ 4cc\	4cc\	-cież
8FF/L 8C/ 8F/	.	.	.
8FF/J 8C/ 8F/	8f\ 8a\ 8cc\	8cc\	mi
=15	=15	=15	=15
8CC/	4g/ 4b-/	4b-\	kie-
8C\L 8E\	.	.	.
8C\J 8E\ 8c\	8g/ 8b-/	8b-\	-lich
=16	=16	=16	=16
8FF/ 8F/	8f/L 8a/	(8a/L	trun-
8F\L 8A\ 8c\	8a/J 8cc/	8cc/J)	.
8F\J 8A\ 8c\	8a\ 8ff\	8ff\	-ku,
=17	=17	=17	=17
8BBB-/ 8BB-/	4f\ 4b-\ 4dd\	4dd\	po-
(8BB-\L 8D\ 8F\	.	.	.
8BB-\J) 8D\ 8F\ 8B-\	8f\ 8b-\ 8dd\	8dd\	-daj-
!!LO:LB:g=original
=18	=18	=18	=18
(<8FFF/ 8FF/	4f\ 4a\ 4cc\	4cc\	-cież
8A\L) 8c\	.	.	.
8F\J 8A\ 8c\	8f\ 8a\ 8cc\	8cc\	mi
=19	=19	=19	=19
8CC/	8c/L 8cc/	(8cc\L	kie-
8C\L 8G\ 8B-\ 8c\	8d/ 8dd/	8dd\J)	.
8C\J 8G\ 8B-\ 8c\	8e/J 8ee/	8ee\	-lich
=20	=20	=20	=20
8F\L 8A\ 8c\	8f/L 8ff/	8ff\	tun-
8F\J 8A\ 8c\	8f/J	8f/	-ku
8r	8r	8r	.
!!LO:LB:g=original
==	==	==	==
*-	*-	*-	*-
!!!system-decoration: s1,{(s2,s3)}
!!!RDF**kern: < = below
!!!RDF**kern: > = above
!!!ENC: Marta Chmielewska
!!!END: 2021-11-10
